X: 260
T:New German March,The x259
M:C|
Q:140
S:James Winder Ms, Lancashire, 1835-41
R:March
O:England
A:Wyresdale,Lancashire
H:1/8
Z:vmp.Chris Partington, Aug 2004
K:G
B>c|d>cd>e d>cB>A|G2G>G G2B2|\
A>GA>B A>GF>E|D2D>D D2d>c|!
B>cd>e A>Bc>c|B>cd>e A>Bc>c|\
BG (B/c/d/B/) AF (A/B/c/A/)|G2G>G G2||!
B>c|d>cd>e d>gf>e|d2d>d d2B>c|\
d>Bg>f e>dc>B|A2A>A A2d>c|!
B>GG>G G2c>B|A>DD>D D2d>c|\
B>G (B/c/d/B/) A>F (A/B/c/A/)|G2G>G G2|]
